dist/assets/img/search-black.svg

<svg width="26" height="26" viewBox="0 0 26 26" fill="none" xmlns="http://www.w3.org/2000/svg">
<path d="M20.959 19.8984C20.6661 19.6055 20.1913 19.6055 19.8984 19.8984C19.6055 20.1913 19.6055 20.6661 19.8983 20.959L20.959 19.8984ZM24.4697 25.5304C24.7626 25.8233 25.2374 25.8233 25.5303 25.5304C25.8232 25.2375 25.8232 24.7627 25.5303 24.4698L24.4697 25.5304ZM19.8983 20.959L24.4697 25.5304L25.5303 24.4698L20.959 19.8984L19.8983 20.959ZM11.2857 20.8215C6.01929 20.8215 1.75 16.5522 1.75 11.2857H0.25C0.25 17.3806 5.19087 22.3215 11.2857 22.3215V20.8215ZM20.8215 11.2857C20.8215 16.5522 16.5522 20.8215 11.2857 20.8215V22.3215C17.3806 22.3215 22.3215 17.3806 22.3215 11.2857H20.8215ZM11.2857 1.75C16.5522 1.75 20.8215 6.01929 20.8215 11.2857H22.3215C22.3215 5.19087 17.3806 0.25 11.2857 0.25V1.75ZM11.2857 0.25C5.19087 0.25 0.25 5.19087 0.25 11.2857H1.75C1.75 6.01929 6.01929 1.75 11.2857 1.75V0.25Z" fill="#383838"/>
</svg>

<svg width="26" height="26" fill="none" xmlns="http://www.w3.org/2000/svg"><path d="M20.959 19.898a.75.75 0 1 0-1.06 1.061l1.06-1.06Zm3.51 5.632a.75.75 0 1 0 1.061-1.06l-1.06 1.06ZM19.9 20.96l4.57 4.571 1.061-1.06-4.571-4.572-1.06 1.061Zm-8.613-.137a9.536 9.536 0 0 1-9.536-9.536H.25c0 6.095 4.94 11.036 11.036 11.036v-1.5Zm9.536-9.536a9.536 9.536 0 0 1-9.536 9.536v1.5c6.095 0 11.036-4.941 11.036-11.036h-1.5ZM11.286 1.75a9.536 9.536 0 0 1 9.536 9.536h1.5C22.322 5.19 17.38.25 11.286.25v1.5Zm0-1.5C5.19.25.25 5.19.25 11.286h1.5a9.536 9.536 0 0 1 9.536-9.536V.25Z" fill="#383838"/></svg>
